images/icon-karma.svg

<svg xmlns="http://www.w3.org/2000/svg" width="64" height="64"><g fill="none"><path fill="#676E74" d="M26.375 52.625h11.25V64h-11.25z"/><path fill="#333637" d="M32 52.625h5.625V64H32z"/><path fill="#4C545A" d="M22.625 47h18.75v9.375h-18.75z"/><path fill="#52585C" d="M32 47h9.375v9.375H32z"/><path fill="#FFDA2D" d="M45.012 36.725c-2.325 1.913-3.637 4.612-3.637 7.425V47h-18.75v-2.85c0-2.85-1.238-5.512-3.3-7.125-5.062-3.938-7.95-9.862-7.95-16.275a20.585 20.585 0 017.613-16.013C22.7 1.737 27.238 0 32 0c1.462 0 2.962.15 4.425.45 8.1 1.688 14.475 8.45 15.9 16.663 1.275 7.5-1.425 14.85-7.313 19.612z"/><path fill="#FDBF00" d="M45.012 36.725c-2.325 1.913-3.637 4.612-3.637 7.425V47H32V0c1.462 0 2.962.15 4.425.45 8.1 1.688 14.475 8.45 15.9 16.663 1.275 7.5-1.425 14.85-7.313 19.612z"/><path fill="#676E74" d="M18.875 45.125h26.25v3.75h-26.25z"/><path fill="#FF9100" d="M39.956 10.143l2.651 2.651-3.979 3.978-2.651-2.651z"/><path fill="#FDBF00" d="M25.372 24.727l2.651 2.651-3.979 3.979-2.651-2.651zM30.125 28.25h3.75v5.625h-3.75z"/><path fill="#FF9100" d="M38.628 24.727l3.979 3.979-2.651 2.651-3.979-3.979zM39.5 18.875h5.625v3.75H39.5z"/><path fill="#FDBF00" d="M24.044 10.143l3.979 3.979-2.651 2.65-3.979-3.978zM18.875 18.875H24.5v3.75h-5.625zM30.125 7.625h3.75v5.625h-3.75z"/><g fill="#FFDA2D"><path d="M0 18.875h7.625v3.75H0zM6.585 14.81l-5.75-3.75 2.08-3.12 5.75 3.75zM2.915 33.56l-2.08-3.12 5.75-3.75 2.08 3.12z"/></g><path fill="#FDBF00" d="M56.375 18.875H64v3.75h-7.625zM61.085 33.56l-5.75-3.75 2.08-3.12 5.75 3.75zM57.415 14.81l-2.08-3.12 5.75-3.75 2.08 3.12z"/><path fill="#FF9100" d="M32 7.625h1.875v5.625H32zM32 28.25h1.875v5.625H32z"/><path fill="#333637" d="M32 45.125h13.125v3.75H32z"/><path fill="#FDBF00" d="M32 11.375c-5.175 0-9.375 4.2-9.375 9.375s4.2 9.375 9.375 9.375 9.375-4.2 9.375-9.375-4.2-9.375-9.375-9.375z"/><path fill="#FF9100" d="M32 30.125v-18.75c5.175 0 9.375 4.2 9.375 9.375s-4.2 9.375-9.375 9.375z"/><path fill="#FFDA2D" d="M30.125 18.875h3.75v3.75h-3.75z"/><path fill="#FDBF00" d="M32 18.875h1.875v3.75H32z"/></g></svg>

<svg version="1.2" xmlns="http://www.w3.org/2000/svg" viewBox="0 0 64 64" width="64" height="64">
	<style>
		.s0 { fill: #676e74 } 
		.s1 { fill: #333637 } 
		.s2 { fill: #4c545a } 
		.s3 { fill: #52585c } 
		.s4 { fill: #ffda2d } 
		.s5 { fill: #fdbf00 } 
	</style>
	<g>
		<path class="s0" d="m26.38 52.63l11.25-0.01v11.38h-11.25z"/>
		<path class="s1" d="m32 52.63l5.63-0.01v11.38h-5.63z"/>
		<path class="s2" d="m22.63 47h18.75v9.38l-18.75-0.01z"/>
		<path class="s3" d="m32 47h9.38l-0.01 9.38-9.37-0.01z"/>
		<path class="s4" d="m45.01 36.73c-2.32 1.91-3.63 4.61-3.63 7.42v2.85h-18.75v-2.85c0-2.85-1.24-5.51-3.3-7.12-5.07-3.94-7.95-9.87-7.95-16.28q-0.01-2.3 0.5-4.55 0.5-2.24 1.49-4.32 0.99-2.08 2.41-3.88 1.42-1.81 3.21-3.26c3.71-3 8.25-4.74 13.01-4.74 1.46 0 2.96 0.15 4.42 0.45 8.11 1.69 14.48 8.45 15.9 16.66 1.28 7.5-1.42 14.85-7.31 19.62z"/>
		<path class="s5" d="m45.01 36.73c-2.32 1.91-3.63 4.61-3.63 7.42v2.85h-9.38v-47c1.46 0 2.96 0.15 4.42 0.45 8.11 1.69 14.48 8.45 15.9 16.66 1.28 7.5-1.42 14.85-7.31 19.62z"/>
		<path class="s0" d="m18.88 45.13l26.25-0.01v3.75h-26.25z"/>
		<g>
		</g>
		<path class="s1" d="m32 45.13l13.13-0.01-0.01 3.75h-13.12z"/>
		<path class="s4" d="m30.13 18.88h3.75v3.75h-3.75z"/>
		<path class="s5" d="m32 18.88h1.88v3.75h-1.88z"/>
	</g>
</svg>
